X: 97
T:Minuet,A. JaW.097
M:3/4
L:1/4
Q:1/4=60
C:"..A Good One"
S:James Winder Ms, Lancashire, 1835-41
R:Minuet
O:England
A:Wyresdale,Lancashire
H:1/4
Z:vmp.Chris Partington, Aug 2004
K:C
GcB|cAe|BcA|B/A/G/^F/E|AcB|cAB|(c/d/)d2|e3:|!
|:ege|dgd|ege|dgd|fed|gcf|(f/e/)d2|c3|!
cec|BdB|cec|BeB|cBA|fea|(c/B/)B2|A3:|]
